recipes/element/icon.svg

<svg fill="none" height="1024" viewBox="0 0 1024 1024" width="1024" xmlns="http://www.w3.org/2000/svg"><g clip-rule="evenodd" fill="#0dbd8b" fill-rule="evenodd"><path d="m414 204c0-23.196 18.804-42 42-42 154.64 0 280 125.36 280 280 0 23.196-18.804 42-42 42s-42-18.804-42-42c0-108.248-87.752-196-196-196-23.196 0-42-18.804-42-42z"/><path d="m610 820c0 23.196-18.804 42-42 42-154.64 0-280-125.36-280-280 0-23.196 18.804-42 42-42s42 18.804 42 42c0 108.248 87.752 196 196 196 23.196 0 42 18.804 42 42z"/><path d="m204 610c-23.196 0-42-18.804-42-42 0-154.64 125.36-280 280-280 23.196 0 42 18.804 42 42s-18.804 42-42 42c-108.248 0-196 87.752-196 196 0 23.196-18.804 42-42 42z"/><path d="m820 414c23.196 0 42 18.804 42 42 0 154.64-125.36 280-280 280-23.196 0-42-18.804-42-42s18.804-42 42-42c108.248 0 196-87.752 196-196 0-23.196 18.804-42 42-42z"/></g></svg>

<svg width="1024" height="1024" viewBox="0 0 1024 1024" fill="none" xmlns="http://www.w3.org/2000/svg">
<path fill-rule="evenodd" clip-rule="evenodd" d="M414 204C414 180.804 432.804 162 456 162C610.64 162 736 287.36 736 442C736 465.196 717.196 484 694 484C670.804 484 652 465.196 652 442C652 333.752 564.248 246 456 246C432.804 246 414 227.196 414 204Z" fill="#0DBD8B"/>
<path fill-rule="evenodd" clip-rule="evenodd" d="M610 820C610 843.196 591.196 862 568 862C413.36 862 288 736.64 288 582C288 558.804 306.804 540 330 540C353.196 540 372 558.804 372 582C372 690.248 459.752 778 568 778C591.196 778 610 796.804 610 820Z" fill="#0DBD8B"/>
<path fill-rule="evenodd" clip-rule="evenodd" d="M204 610C180.804 610 162 591.196 162 568C162 413.36 287.36 288 442 288C465.196 288 484 306.804 484 330C484 353.196 465.196 372 442 372C333.752 372 246 459.752 246 568C246 591.196 227.196 610 204 610Z" fill="#0DBD8B"/>
<path fill-rule="evenodd" clip-rule="evenodd" d="M820 414C843.196 414 862 432.804 862 456C862 610.64 736.64 736 582 736C558.804 736 540 717.196 540 694C540 670.804 558.804 652 582 652C690.248 652 778 564.248 778 456C778 432.804 796.804 414 820 414Z" fill="#0DBD8B"/>
</svg>
